Komodo/actions/scalable/media-eject-symbolic.svg

<?xml version="1.0" encoding="UTF-8" standalone="no"?>
<!-- Created with Inkscape (http://www.inkscape.org/) -->

<svg
   xmlns:dc="http://purl.org/dc/elements/1.1/"
   xmlns:cc="http://creativecommons.org/ns#"
   xmlns:rdf="http://www.w3.org/1999/02/22-rdf-syntax-ns#"
   xmlns:svg="http://www.w3.org/2000/svg"
   xmlns="http://www.w3.org/2000/svg"
   xmlns:xlink="http://www.w3.org/1999/xlink"
   xmlns:sodipodi="http://sodipodi.sourceforge.net/DTD/sodipodi-0.dtd"
   xmlns:inkscape="http://www.inkscape.org/namespaces/inkscape"
   width="16"
   height="16"
   id="svg2"
   sodipodi:version="0.32"
   inkscape:version="0.48.2 r9819"
   version="1.0"
   sodipodi:docname="media-eject-symbolic.svg"
   inkscape:output_extension="org.inkscape.output.svg.inkscape">
  <defs
     id="defs4">
    <inkscape:perspective
       sodipodi:type="inkscape:persp3d"
       inkscape:vp_x="0 : 8 : 1"
       inkscape:vp_y="0 : 1000 : 0"
       inkscape:vp_z="16 : 8 : 1"
       inkscape:persp3d-origin="8 : 5.3333333 : 1"
       id="perspective18" />
    <linearGradient
       id="StandardGradient"
       gradientTransform="scale(1.0023447,0.9976608)"
       x1="6.9680371"
       y1="3.0226958"
       x2="6.9680371"
       y2="13.05007"
       gradientUnits="userSpaceOnUse">
      <stop
         id="stop3284"
         offset="0"
         style="stop-color:#000000;stop-opacity:0.86274511;" />
      <stop
         id="stop3286"
         offset="1"
         style="stop-color:#000000;stop-opacity:0.47058824;" />
    </linearGradient>
    <linearGradient
       inkscape:collect="always"
       xlink:href="#StandardGradient"
       id="linearGradient2826"
       gradientUnits="userSpaceOnUse"
       gradientTransform="matrix(1.0023447,0,0,0.9976608,0,1)"
       x1="6.9680371"
       y1="3.0226958"
       x2="6.9680371"
       y2="13.05007" />
    <linearGradient
       inkscape:collect="always"
       xlink:href="#StandardGradient"
       id="linearGradient2830"
       gradientUnits="userSpaceOnUse"
       gradientTransform="scale(1.0023447,0.9976608)"
       x1="6.9680371"
       y1="3.0226958"
       x2="6.9680371"
       y2="13.05007" />
    <inkscape:perspective
       id="perspective3648"
       inkscape:persp3d-origin="0.5 : 0.33333333 : 1"
       inkscape:vp_z="1 : 0.5 : 1"
       inkscape:vp_y="0 : 1000 : 0"
       inkscape:vp_x="0 : 0.5 : 1"
       sodipodi:type="inkscape:persp3d" />
    <linearGradient
       inkscape:collect="always"
       xlink:href="#StandardGradient"
       id="linearGradient3629"
       gradientUnits="userSpaceOnUse"
       gradientTransform="matrix(1.0023447,0,0,0.9976608,-20,0)"
       x1="6.9680371"
       y1="3.0226958"
       x2="6.9680371"
       y2="13.05007" />
    <clipPath
       clipPathUnits="userSpaceOnUse"
       id="clipPath3636">
      <path
         style="fill:#ff00ff;fill-opacity:1;stroke:none;display:inline"
         d="m -20,0 0,16 16,0 0,-16 -16,0 z m 8,3 5,6.03125 -10,0 L -12,3 z m -5,8 10,0 0,2 -10,0 0,-2 z"
         id="path3638" />
    </clipPath>
    <linearGradient
       inkscape:collect="always"
       xlink:href="#StandardGradient"
       id="linearGradient4541"
       gradientUnits="userSpaceOnUse"
       gradientTransform="scale(1.0023447,0.9976608)"
       x1="6.9680371"
       y1="3.0226958"
       x2="6.9680371"
       y2="13.05007" />
    <linearGradient
       inkscape:collect="always"
       xlink:href="#StandardGradient"
       id="linearGradient4545"
       gradientUnits="userSpaceOnUse"
       gradientTransform="scale(1.0023447,0.9976608)"
       x1="6.9680371"
       y1="3.0226958"
       x2="6.9680371"
       y2="13.05007" />
  </defs>
  <sodipodi:namedview
     id="base"
     pagecolor="#ffffff"
     bordercolor="#9a9a9a"
     borderopacity="1"
     inkscape:pageopacity="0.0"
     inkscape:pageshadow="2"
     inkscape:zoom="17.578558"
     inkscape:cx="-15.305172"
     inkscape:cy="4.2876545"
     inkscape:document-units="px"
     inkscape:current-layer="layer4"
     showgrid="true"
     inkscape:showpageshadow="false"
     showguides="true"
     inkscape:guide-bbox="true"
     inkscape:window-width="1920"
     inkscape:window-height="1030"
     inkscape:window-x="0"
     inkscape:window-y="22"
     inkscape:window-maximized="1">
    <sodipodi:guide
       orientation="1,0"
       position="0,112"
       id="guide2383" />
    <sodipodi:guide
       orientation="0,1"
       position="26.278146,128"
       id="guide2385" />
    <sodipodi:guide
       orientation="1,0"
       position="128,54.082119"
       id="guide2387" />
    <sodipodi:guide
       orientation="0,1"
       position="78.156291,0"
       id="guide2389" />
    <inkscape:grid
       type="xygrid"
       id="grid3672"
       visible="true"
       enabled="true" />
  </sodipodi:namedview>
  <metadata
     id="metadata7">
    <rdf:RDF>
      <cc:Work
         rdf:about="">
        <dc:format>image/svg+xml</dc:format>
        <dc:type
           rdf:resource="http://purl.org/dc/dcmitype/StillImage" />
      </cc:Work>
    </rdf:RDF>
  </metadata>
  <g
     inkscape:groupmode="layer"
     id="layer4"
     inkscape:label="Arrow"
     style="display:inline">
    <path
       id="Symbol"
       style="opacity:1;fill:#bebebe;fill-opacity:1;stroke:none;stroke-width:0.99999976000000002;stroke-linecap:round;stroke-linejoin:miter;stroke-miterlimit:4;stroke-dasharray:none;stroke-opacity:1;display:inline"
       d="M 2.984375,9.028195 L 7.9870801,3.015625 L 13.015625,9.028195 L 2.984375,9.028195 z M 3,11 L 13,11 L 13,13 L 3,13 L 3,11 z"
       sodipodi:nodetypes="ccccccccc" />
  </g>
</svg>

<?xml version="1.0" encoding="UTF-8" standalone="no"?>
<!-- Created with Inkscape (http://www.inkscape.org/) -->
<svg id="svg2" xmlns:rdf="http://www.w3.org/1999/02/22-rdf-syntax-ns#" xmlns="http://www.w3.org/2000/svg" height="16" width="16" version="1.0" xmlns:cc="http://creativecommons.org/ns#" xmlns:xlink="http://www.w3.org/1999/xlink" xmlns:dc="http://purl.org/dc/elements/1.1/">
 <metadata id="metadata7">
  <rdf:RDF>
   <cc:Work rdf:about="">
    <dc:format>image/svg+xml</dc:format>
    <dc:type rdf:resource="http://purl.org/dc/dcmitype/StillImage"/>
   </cc:Work>
  </rdf:RDF>
 </metadata>
 <g id="layer4">
  <path id="Symbol" style="fill:#bebebe" d="m2.9844 9.0282l5.0027-6.0126 5.0289 6.0126h-10.032zm0.0156 1.9718h10v2h-10v-2z"/>
 </g>
</svg>
